X:1
T:The Nutting Girl
M:4/4
L:1/4
K:D
 A/2A/2| D F A A| G E2 C| D F A F| G3 A| A A G A| F D D D| G E D C|\
 D3 A| F A d B| c- B A2| F A d B| c3 d| d d d d| B A3| G E F G| A3 A|\
 D F A A/2A/2| G F E2| D D/2D/2 F G| A3 A| G G G G| F D D F| G E D C|\
 D2 z||
